X:120
T:(untitled)
T:John Malchair's Third Collection of Tunes
%%VWML:Malchair-3619-p120
F:https://www.vwml.org/record/Malchair/3619/p120
F:www.vwml.org/topics/historic-dance-and-tune-books/Malchair
Z:Eric Conrad Feb 2020
W:Austrian tune played by [?] Oxford Militia band Oxon March 1800.
M:6/8
L:1/16
K:C
% Some harmony notes have been obscured by MS erasures and corrections.
% Transcription follows the MS as corrected, as best as I can determine.
g2 | e2efg2 e2efg2 | f2e2f2 d4f2 | e2c2c2 [GA]2d2d2 | B2dcBA G4g2 |
e2efg2 g2c'2g2 | f2e2f2 d4f2 | e2c2c2 A2d2d2 | B2AGAB [ceg]4 ||
e2 | g2d2B2 c2e2g2 | f2d2B2 c4de | x6 c4x2 & f2d2B2 c2e2g2 | g2agfe d4f2 |
e2efg2 e2efg2 | f2e2f2 d4f2 | e2c2c2 A2d2d2 | B2dcBA G4g2 |
e2efg2 g2c'2g2 | f2e2f2 d4f2 | e2c2c2 A2d2d2 | B2AGAB c4 |]
W:\u00a0% Using this W: as a space between tunes
T:The Beggar Boy.
T:John Malchair's Third Collection of Tunes
%%VWML:Malchair-3619-p120
F:https://www.vwml.org/record/Malchair/3619/p120
F:www.vwml.org/topics/historic-dance-and-tune-books/Malchair
% Z:Eric Conrad Feb 2020
W:Printed 1652 & 1665 -- Dancing
M:6/4
L:1/4
K:Aphr  % one flat ending on A. Phrygian mode?
AAA f2f | ec2 d2c | AF2 G2G | A2B cA2 ||
AAA f2f | ec2 d2c | Ac2 e>de | fA2 G3 |
Ac2 e>dc | dfg/f/ efd | cAF G2G | A2B cA2 |]



